svgs/ehviewer.svg

<svg width="192" height="192" viewBox="0 0 192 192" fill="none" xmlns="http://www.w3.org/2000/svg">
<path d="M102 22H28C24.6863 22 22 24.6863 22 28V96M22 96V164C22 167.314 24.6863 170 28 170H62.5M22 96H164C167.314 96 170 98.6863 170 102V170M102 64.5V170" stroke="black" stroke-width="12" stroke-linecap="round"/>
</svg>

<svg width="192" height="192" viewBox="0 0 192 192" fill="none" xmlns="http://www.w3.org/2000/svg"><path d="M102 22H28a6 6 0 0 0-6 6v68m0 0v68a6 6 0 0 0 6 6h34.5M22 96h142a6 6 0 0 1 6 6v68M102 64.5V170" stroke="#000" stroke-width="12" stroke-linecap="round"/></svg>
